X: 168
T: For Freedom and for Erin
N:"Boldly" "collected by J. O'Neill"
B:O'Neill's 168
Z:Transcribed by henrik.norbeck@mailbox.swipnet.se
M:6/8
L:1/8
K:Gm
D|G2 B A2 G|F2 =E D2 E|F2 F F2 A|c3 A2 A|
G2 B A2 G|F2 =E HD2 d|d2 c B2 A|G3 G2"fine"||
A|B2 B B2 G|c2 c c2 A|B2 B B2 G|c3 A2 A|
B2 B B2 G|c2 c Hc2 (=B/c/)|d2 c _B2 A|G3 d2"D.C."||


